rospo-icon-theme-classic-common/24x24/places/folder-brown-locked.svg

<svg height="24" width="24" xmlns="http://www.w3.org/2000/svg"><rect height="12" opacity=".2" rx="1" width="20" x="2" y="9.5"/><path d="m2 17c0 .554.446 1 1 1h18c .554 0 1-.446 1-1v-11c0-.554-.446-1-1-1h-10v-1c0-.554-.446-1-1-1h-7c-.554 0-1 .446-1 1" fill="#957552"/><rect height="12" opacity=".2" rx="1" width="20" x="2" y="8.5"/><rect fill="#e4e4e4" height="8" rx="1" width="16" x="4" y="7"/><rect fill="#ae8e6c" height="12" rx="1" width="20" x="2" y="9"/><path d="m3 3c-.554 0-1 .446-1 1v .5c0-.554.446-1 1-1h7c .554 0 1 .446 1 1v-.5c0-.554-.446-1-1-1zm8 2v .5h10c .554 0 1 .446 1 1v-.5c0-.554-.446-1-1-1z" fill="#fff" opacity=".1"/><path d="m12 11c-1.108 0-2 .91-2 2.031v.969h-.5c-.277 0-.5.223-.5.5v3c0 .277.223.5.5.5h5c .277 0 .5-.223.5-.5v-3c0-.277-.223-.5-.5-.5h-.5v-.969c0-1.12-.892-2.031-2-2.031zm0 1c .554 0 1 .445 1 1v1h-2v-1c0-.555.446-1 1-1z" fill="#3d3226"/></svg>

<svg xmlns="http://www.w3.org/2000/svg" width="24" height="24" version="1">
 <rect style="opacity:0.2" width="20" height="12" x="2" y="9.5" rx="1" ry="1"/>
 <path style="fill:#957552" d="M 2,17 C 2,17.554 2.446,18 3,18 H 21 C 21.554,18 22,17.554 22,17 V 6 C 22,5.446 21.554,5 21,5 H 11 V 4 C 11,3.446 10.554,3 10,3 H 3 C 2.446,3 2,3.446 2,4"/>
 <rect style="opacity:0.2" width="20" height="12" x="2" y="8.5" rx="1" ry="1"/>
 <rect style="fill:#dcdcdc" width="16" height="8" x="4" y="7" rx="1" ry="1"/>
 <rect style="fill:#ae8e6c" width="20" height="12" x="2" y="9" rx="1" ry="1"/>
 <path style="opacity:0.1;fill:#ffffff" d="M 3,3 C 2.446,3 2,3.446 2,4 V 4.5 C 2,3.946 2.446,3.5 3,3.5 H 10 C 10.554,3.5 11,3.946 11,4.5 V 4 C 11,3.446 10.554,3 10,3 Z M 11,5 V 5.5 H 21 C 21.554,5.5 22,5.946 22,6.5 V 6 C 22,5.446 21.554,5 21,5 Z"/>
 <path style="fill:#3d3226" d="M 12,11 C 10.892,11 10,11.91 10,13.031 V 14 H 9.5 C 9.223,14 9,14.223 9,14.5 V 17.5 C 9,17.777 9.223,18 9.5,18 H 14.5 C 14.777,18 15,17.777 15,17.5 V 14.5 C 15,14.223 14.777,14 14.5,14 H 14 V 13.031 C 14,11.911 13.108,11 12,11 Z M 12,12 C 12.554,12 13,12.445 13,13 V 14 H 11 V 13 C 11,12.445 11.446,12 12,12 Z"/>
</svg>
